images/icon/email_c.svg

<svg width="32" height="32" viewBox="0 0 32 32" fill="none" xmlns="http://www.w3.org/2000/svg">
<g clip-path="url(#clip0)">
<path d="M15.63 31.65C24.2622 31.65 31.26 24.6477 31.26 16.01C31.26 7.37226 24.2622 0.369995 15.63 0.369995C6.99779 0.369995 0 7.37226 0 16.01C0 24.6477 6.99779 31.65 15.63 31.65Z" fill="#89663D"/>
<path d="M18.45 16.8L24.06 20.35V13.11L18.45 16.8Z" fill="black"/>
<path d="M7.42999 13.11V20.35L13.04 16.8L7.42999 13.11Z" fill="black"/>
<path d="M23 11H8.46997C8.22429 10.9982 7.98656 11.0869 7.80212 11.2493C7.61768 11.4116 7.49945 11.6361 7.46997 11.88L15.75 17.34L24 11.88C23.9705 11.6361 23.8523 11.4116 23.6678 11.2493C23.4834 11.0869 23.2456 10.9982 23 11ZM17.5 17.43L16 18.43C15.9135 18.4852 15.8125 18.5131 15.71 18.51C15.6104 18.5144 15.5122 18.4863 15.43 18.43L14 17.4L7.49997 21.56C7.5317 21.8021 7.65091 22.0242 7.83512 22.1845C8.01933 22.3447 8.25581 22.4321 8.49997 22.43H23C23.2441 22.4321 23.4806 22.3447 23.6648 22.1845C23.849 22.0242 23.9682 21.8021 24 21.56L17.5 17.43Z" fill="black"/>
</g>
<defs>
<clipPath id="clip0">
<rect width="31.27" height="31.65" fill="white"/>
</clipPath>
</defs>
</svg>

<svg xmlns="http://www.w3.org/2000/svg" xmlns:xlink="http://www.w3.org/1999/xlink" viewBox="0 0 31.26 31.28"><defs><style>.cls-1{fill:none;}.cls-2{clip-path:url(#clip-path);}.cls-3{fill:#b0935b;}</style><clipPath id="clip-path" transform="translate(0 -0.37)"><rect class="cls-1" width="31.27" height="31.65"/></clipPath></defs><g id="Layer_2" data-name="Layer 2"><g id="Layer_1-2" data-name="Layer 1"><g class="cls-2"><path class="cls-3" d="M15.63,31.65A15.64,15.64,0,1,0,0,16,15.63,15.63,0,0,0,15.63,31.65Z" transform="translate(0 -0.37)"/><path d="M18.45,16.8l5.61,3.55V13.11Z" transform="translate(0 -0.37)"/><path d="M7.43,13.11v7.24L13,16.8Z" transform="translate(0 -0.37)"/><path d="M23,11H8.47a1,1,0,0,0-1,.88l8.28,5.46L24,11.88A1,1,0,0,0,23,11Zm-5.5,6.43-1.5,1a.51.51,0,0,1-.29.08.46.46,0,0,1-.28-.08L14,17.4,7.5,21.56a1,1,0,0,0,.34.62,1,1,0,0,0,.66.25H23a1,1,0,0,0,.66-.25,1,1,0,0,0,.34-.62Z" transform="translate(0 -0.37)"/></g></g></g></svg>
